X:1
T:At Hour of Silent Midnight
T:At Hour of Silent Midnight
T:Francis Stanfield
T:Francis Stanfield, 1862, alt.
T:Public Domain Courtesy of the Cyber Hymnal™
T:Public Domain Courtesy of the Cyber Hymnal™
T:Public Domain Courtesy of the Cyber Hymnal™
C:Francis Stanfield
Z:Public Domain
Z:Courtesy of the Cyber Hymnal™
%%score ( 1 2 ) ( 3 4 )
L:1/8
Q:1/4=96
M:6/8
K:Bb
V:1 treble 
V:2 treble 
V:3 bass 
V:4 bass 
V:1
 [Dd] | (cB)[EG] [DF]2 D | [^CG]3 [DF]2 F | (FG)[FA] [=EB]2 [EG] | [Ec]3- [Ec]2 [Dd] | %5
w: 1.~At|hour * of si- lent|mid- night, O|mys- * te- ry of|love, * Earth’s|
w: 2.~A-|mid * the star- lit|heav- ens There|shines * a glor- ious|light, * And|
w: 3.~The|prais- * es of the|an- gels Were|waft- * ed from a-|bove, * And|
w: 4.~And|there * the mo- ther|kneel- ing, Bends|fond- * ly o’ her|Son, * Watch-|
w: 5.~Christ-|ians * re- deemed, oh,|has- ten, To|Bethle- * hem’s sac- red|shrine, * And|
 (cB)[EG] [DF]2 [DB] | [=EB]3 [EA]2 [EG] | (cd)[FA] [=EA]2 [EG] | F3- [EF]2 [DF] | %9
w: longed * and sighed for|Sav- ior De-|scend- * ed from a-|bove; A- wake,|
w: hosts * of gleam- ing|an- gels Il-|lume * the lone- ly|night; They leave|
w: shep- * herds left their|night watch To|seek * the God of|love; They longed|
w: ing * with bless- èd|Jo- seph, Her|cher- * ished Lit- tle|One. See Je-|
w: come, * draw nigh to|Je- sus, To|kiss * His feet di-|vine. O, bless|
!<(! FA!<)![Fc] [ce]2 [Bd] |!>(! [Fd]3 [Fc]2!>)! F | (FG)[FA] [FB]2 [DG] | [Fc]3- [Fc]2 F | %13
w: * * a- wake, cre-|a- tion! A-|rise, * for Light has|come; * Lo!|
w: * * their thrones of|glo- ry To|seek * their new- born|king, * And,|
w: * * to gaze on|Je- sus, To|see * the new- born|Child— * They|
w: * * sus in the|man- ger, How|still * and meek He|lies; * Now|
w: * * our new- born|Sav- ior, Our|in- * fant God a-|dore; * Till|
!<(! (FA)!<)![Fc] [Ae]2 [Bd] | [Fd]3 [Fc]2 [^Fd] | ([GB][^FA])G [GB]2 [Gc] | %16
w: earth * is changed to|Hea- ven, For|earth * is Je- sus’|
w: ranged * in count- less|ar- mies, Glad|hymns * of tri- umph|
w: found * the God of|Hea- ven, An|in- * fant meek and|
w: smiles * play on His|fea- tures, Now|tears * are in His|
w: love * shall sweet- ly|lead us Home|to * th’e- ter- nal|
 [^Fd]3- !fermata![Fd]2 [Fd] | (cB)[EG]!<(! [DF]2 [_Af]!<)! |!>(! [Gf]3!>)! !fermata![Ge]2 [Gc] | %19
w: home: * Lo!|earth * is changed to|Hea- ven, For|
w: sing: * And,|ranged * in count- less|ar- mies, Glad|
w: mild; * They|found * the God of|Hea- ven, An|
w: eyes. * Now|smiles * play on His|fea- tures, Now|
w: shore; * Till|love * shall sweet- ly|lead us Home|
 ([FB][EA])[DB] [Ec]2 [Fd] | [DB]3- [DB]2 z ||"^Refrain" [B,D][DF][FB] [Bd]2 [=EGB] | %22
w: earth * is Je- sus’|home. *||
w: hymns * of tri- umph|sing. *||
w: in- * fant meek and|mild. *|Glo- ry to God on|
w: tears * are in His|eyes. *||
w: to * th’e- ter- nal|shore. *||
 [Ff]3- [Ff]2 z | [Fc][Fd][GB] [FA]2 [=EG] | F6 | [Dd][DB][^CG] [DF]2 D | [FB]3!<(! [Gc]3!<)! | %27
w: |||||
w: |||||
w: high! *|Praise to our king, our|new-|born king! Peace un- to|men on|
w: |||||
w: |||||
 (fd)B [Fc]2!>(! [FA]!>)! | [FB]3- [FB]2 |] %29
w: ||
w: ||
w: earth, * Sweet in- fant|Je- *|
w: ||
w: ||
V:2
 x | E2 x2 D x | x5 F | F2 x4 | x6 | E2 x4 | x6 | F2 x4 | C2 D x3 | C2 x4 | x5 F | F2 x4 | x5 F | %13
 F2 x4 | x6 | x2 G x3 | x6 | G2 x4 | x6 | x6 | x6 || x6 | x6 | x6 | C2 D E3 | x5 D | x6 | F3 x3 | %28
 x5 |] %29
V:3
 [B,,F,] | [B,,G,]2 [B,,A,] [B,,B,]2 [B,,F,] | [B,,=E,]3 [B,,F,]2 [B,D] | %3
 [A,C]2 [A,C] [G,C]2 [G,B,] | ([F,-B,]3 [F,A,]2) [B,,F,] | [B,,G,]2 [B,,A,] [B,,B,]2 [G,,B,] | %6
 (G,2 D) [C,C]2 [C,B,] | [C,A,]2 [C,C] [C,C]2 [C,B,] | (A,2 B, [F,C]2) [F,B,] | %9
 [F,A,]2 [F,A,] [F,A,]2 [F,,F,B,] | [F,B,]3 [F,A,]2 [E,A,] | [D,B,]2 [C,E] [B,,D]2 [G,B,] | %12
 ([F,-B,]3 [F,A,]2) [F,A,] | (A,C)[F,E] [F,C]2 [F,,F,B,] | [F,B,]3 [E,A,]2 [D,A,] | %15
 (G,C)[G,B,] [E,B,]2 [E,G,] | [D,A,]3- !fermata![D,A,]2 [D,A,] | [E,G,]2 [E,B,] [B,,B,]2 [D,B,] | %18
 [E,B,]3 !fermata![E,C]2 [E,E] | (DC)[F,B,] [F,,F,A,]2 [F,,F,A,] | [B,,F,B,]3- [B,,F,B,]2 z || %21
 [B,,B,]3- [B,,B,]2 [G,,G,C] | ([A,C][B,D][CE] [B,,B,D]2) z | [A,C][A,F][B,D] C2 [C,B,] | %24
 A,2 B, (C2 A,) | [B,,F,][B,,F,][B,,=E,] [B,,F,]2 [B,,B,] | [D,B,]3 [E,B,]3 | %27
 [D,B,]2 [G,D] [E,E]2 [F,C] | [B,,D]3- [B,,D]2 |] %29
V:4
 x | x6 | x6 | x6 | x6 | x6 | C,3 x3 | x6 | F,3- x3 | x6 | (F,,B,,D,) x3 | x6 | x6 | F,2 x4 | %14
 (F,,B,,D,) x3 | G,2 x4 | x6 | x6 | x6 | F,2 x4 | x6 || x6 | F,,3 x3 | x3 C2 x | F,6 | x6 | x6 | %27
 x6 | x5 |] %29

